public/logo.svg

<?xml version="1.0" encoding="UTF-8" standalone="no"?>
<!-- Created with Inkscape (http://www.inkscape.org/) -->

<svg
   version="1.1"
   id="svg1"
   width="3200"
   height="739"
   viewBox="0 0 3200 739"
   sodipodi:docname="logo.svg"
   inkscape:version="1.3.2 (091e20e, 2023-11-25)"
   inkscape:export-filename="../../../Downloads/siachecker.png"
   inkscape:export-xdpi="33.255753"
   inkscape:export-ydpi="33.255753"
   xmlns:inkscape="http://www.inkscape.org/namespaces/inkscape"
   xmlns:sodipodi="http://sodipodi.sourceforge.net/DTD/sodipodi-0.dtd"
   xmlns="http://www.w3.org/2000/svg"
   xmlns:svg="http://www.w3.org/2000/svg">
  <defs
     id="defs1" />
  <sodipodi:namedview
     id="namedview1"
     pagecolor="#ffffff"
     bordercolor="#000000"
     borderopacity="0.25"
     inkscape:showpageshadow="2"
     inkscape:pageopacity="0.0"
     inkscape:pagecheckerboard="0"
     inkscape:deskcolor="#d1d1d1"
     showgrid="false"
     inkscape:zoom="0.10986383"
     inkscape:cx="1583.7788"
     inkscape:cy="-113.77721"
     inkscape:window-width="1512"
     inkscape:window-height="840"
     inkscape:window-x="1"
     inkscape:window-y="38"
     inkscape:window-maximized="0"
     inkscape:current-layer="g1"
     showguides="false" />
  <g
     inkscape:groupmode="layer"
     inkscape:label="Image"
     id="g1">
    <g
       id="g6">
      <path
         id="path1"
         style="display:inline;fill:#2f318f;fill-opacity:1"
         d="m 368.19141,23.798828 -23.77735,6.679688 -23.91406,6.71875 -21.44531,6.439453 -21.44336,6.439453 -15.55664,5.083984 -15.55469,5.085938 -21.64062,7.822265 -21.64063,7.820313 -17.35937,6.949219 -17.35938,6.949218 -14,6.185547 -14,6.187504 -20.5,10.46679 -20.5,10.46875 -6.966797,4.70313 -6.966797,4.70117 -2.322265,4.5625 -2.322266,4.56445 -1.169922,12.43555 -1.171875,12.4375 -0.03711,45 -0.03711,45 1.298829,16 1.298828,16 1.998046,17.5 2,17.5 1.925782,12.52734 1.923828,12.5293 3.058594,16.33594 3.058593,16.33594 3.462891,14.47265 3.462891,14.47266 4.48633,14.75976 4.48437,14.75977 4.93164,13.03125 4.92969,13.0332 6.96485,14.51953 6.96679,14.51758 5.24219,9.35352 5.24219,9.35156 8.03515,12 8.03711,12 6.07032,8 6.07031,8 11.66211,13.5 11.66211,13.5 16.36132,16.02539 16.35938,16.02344 8.5,7.57422 8.5,7.57422 11.82617,9.68164 11.82617,9.68359 13.67383,10.28125 13.67383,10.28125 15.5,11.00781 15.5,11.00781 14.5,9.5293 14.5,9.53125 2.5,1.32227 2.5,1.32422 3,0.72461 2.69141,0.64843 z" />
      <path
         id="path18"
         style="display:inline;fill:#4c51c6;fill-opacity:1"
         d="M 368.19141,23.798828 V 712.7207 l 0.30859,0.0742 1,0.0977 1,0.0957 3.75391,-1.04101 3.75195,-1.04297 15.24805,-10.0918 15.24609,-10.0918 18,-12.84375 18,-12.84375 L 461,652.33791 477.5,639.6426 489.48633,629.57033 501.47461,619.5 514.48633,607.40234 527.5,595.30469 l 9.58789,-10.00977 9.58984,-10.00976 7.79493,-8.89258 7.79492,-8.89258 10.375,-13.85547 10.375,-13.85742 8.18359,-13.14258 8.1836,-13.14453 8.18945,-16.15039 8.18945,-16.15039 5.03711,-12.84961 5.03711,-12.84961 2.99805,-9 2.99609,-9 3.03125,-10.5 3.0293,-10.5 2.48633,-10.5 2.48828,-10.5 2.54297,-12.5 2.54296,-12.5 2.9629,-18 2.96484,-18 2.05078,-16.5 2.05078,-16.5 1.48438,-19.68555 1.48242,-19.6875 0.66211,-27.3125 0.66211,-27.31445 -1.19336,-26 -1.19336,-26 -0.94141,-3.59961 -0.9414,-3.59766 -2.26758,-3.40234 -2.26953,-3.40039 -6.98242,-4.72656 -6.98438,-4.72461 -20,-9.95703 -20,-9.95899 -14,-6.181638 -14,-6.183594 -19,-7.488281 -19,-7.488281 -18,-6.521485 -18,-6.521484 -24.5,-7.904297 -24.5,-7.902344 -19,-5.572265 -19,-5.570313 -16.5,-4.947266 -16.5,-4.945312 -4.58594,-0.572266 -4.58398,-0.574218 z" />
      <path
         style="fill:#ffffff;fill-opacity:1"
         d="m 395.199,511.07776 9.69899,-2.098 8.80101,-3.10416 8.801,-3.10415 6,-2.9954 6,-2.99541 8.5,-5.59867 8.5,-5.59868 8.02225,-8.04165 8.02224,-8.04164 3.93691,-5.98457 3.9369,-5.98457 3.3649,-6.83028 3.3649,-6.83029 2.51584,-9.68515 2.51583,-9.68514 0.52398,-13.5 0.52398,-13.5 -1.63903,-9.39625 -1.63903,-9.39626 -3.02839,-7.60374 -3.02839,-7.60375 -4.10156,-7 -4.10155,-7 -10.09489,-10.07606 -10.09489,-10.07606 -8.94087,-5.83418 -8.94086,-5.83418 -11.05914,-5.22203 -11.05913,-5.22202 -23.5,-9.0408 -23.5,-9.0408 -8.13971,-3.4918 -8.13971,-3.4918 -6.52791,-4.12275 -6.52791,-4.12275 -3.69505,-4.08998 -3.69505,-4.08998 -2.12238,-4.62241 -2.12237,-4.6224 -0.015,-8 -0.0149,-8 2.77047,-5.64151 2.77047,-5.6415 4.57626,-4.21826 4.57627,-4.21826 7.15327,-3.27748 7.15326,-3.27749 5.29922,-1.11275 5.29922,-1.11275 8.20078,0.0349 8.20078,0.0349 7.5,1.34251 7.5,1.34251 9.19038,3.08356 9.19037,3.08356 10.28852,5.16302 10.28851,5.16302 7.35243,4.96137 7.35243,4.96136 0.29921,-0.33534 0.29921,-0.33535 11.71817,-27 11.71817,-27 0.1513,-1.91669 0.1513,-1.91669 -8,-5.81392 -8,-5.81392 -13,-6.47331 -13,-6.4733 -10,-2.92358 -10,-2.92357 -10.5,-1.82545 -10.5,-1.82545 -18.5,-0.003 -18.5,-0.003 -9.5,1.74899 -9.5,1.749 -10.17149,3.40324 -10.17148,3.40323 -6.32852,3.17779 -6.32851,3.17778 -6.94566,4.62625 -6.94566,4.62624 -7.64742,7.5 -7.64743,7.5 -4.22424,6.29427 -4.22424,6.29427 -3.89869,8.20573 -3.8987,8.20573 -2.63332,9 -2.63331,9 -0.51378,14 -0.51377,14 1.62847,9.33948 1.62848,9.33948 3.21422,8.13391 3.21423,8.13391 4.89357,7.52661 4.89357,7.52661 8.12684,8.03094 8.12684,8.03093 8.5,5.61203 8.5,5.61203 9,4.48941 9,4.48942 29.5,11.71805 29.5,11.71805 7.89104,4.08438 7.89103,4.08438 5.60897,4.13629 5.60896,4.13629 2.84996,4.12689 2.84996,4.12689 1.35614,3.80201 1.35615,3.80201 0.0439,7.09028 0.0439,7.09028 -3.06352,6.13065 -3.06352,6.13064 -4.61725,4.06427 -4.61725,4.06426 -6.32934,3.02072 -6.32934,3.02071 -7.23989,1.52341 -7.23989,1.52342 -11.57881,0.0133 -11.57881,0.0133 -8.69607,-1.6295 -8.69608,-1.6295 -8.72511,-3.04606 -8.72512,-3.04606 -8.5,-4.55369 -8.5,-4.55368 -5.8335,-3.95731 -5.83349,-3.95731 -6.98092,-6.0083 -6.98092,-6.00829 -0.34065,0.35226 -0.34066,0.35225 -15.52767,26.97858 -15.52766,26.97859 1.18273,1.42702 1.18274,1.42702 6.59557,5.26377 6.59557,5.26377 7.90443,5.18285 7.90443,5.18285 12,5.78976 12,5.78977 9.5,3.08524 9.5,3.08524 7,1.61247 7,1.61246 9.5,1.36804 9.5,1.36803 20,-0.36985 20,-0.36984 z"
         id="path17"
         inkscape:label="path17" />
    </g>
    <text
       xml:space="preserve"
       style="font-weight:bold;font-size:400px;font-family:Helvetica;-inkscape-font-specification:'Helvetica Bold';letter-spacing:0px;fill:#1f2937;fill-opacity:1;stroke-width:1.00913"
       x="839.98816"
       y="513.88184"
       id="text1"
       inkscape:export-filename="text1.svg"
       inkscape:export-xdpi="33.255753"
       inkscape:export-ydpi="33.255753"><tspan
         sodipodi:role="line"
         id="tspan1"
         x="839.98816"
         y="513.88184"
         style="font-style:normal;font-variant:normal;font-weight:bold;font-stretch:normal;font-size:400px;font-family:Inter;-inkscape-font-specification:'Inter Bold';letter-spacing:0px;fill:#1f2937;fill-opacity:1"
         dx="0"><tspan
   style="letter-spacing:-2px"
   id="tspan7">SIA</tspan> <tspan
   style="letter-spacing:4px"
   id="tspan6">Checker</tspan></tspan></text>
  </g>
</svg>

<?xml version="1.0" encoding="UTF-8" standalone="no"?>
<!-- Created with Inkscape (http://www.inkscape.org/) -->

<svg
   version="1.1"
   id="svg1"
   width="739"
   height="739"
   viewBox="0 0 739 739"
   sodipodi:docname="logo.svg"
   inkscape:version="1.3.2 (091e20e, 2023-11-25)"
   inkscape:export-filename="favicon.png"
   inkscape:export-xdpi="33.255753"
   inkscape:export-ydpi="33.255753"
   xmlns:inkscape="http://www.inkscape.org/namespaces/inkscape"
   xmlns:sodipodi="http://sodipodi.sourceforge.net/DTD/sodipodi-0.dtd"
   xmlns="http://www.w3.org/2000/svg"
   xmlns:svg="http://www.w3.org/2000/svg">
  <defs
     id="defs1" />
  <sodipodi:namedview
     id="namedview1"
     pagecolor="#ffffff"
     bordercolor="#000000"
     borderopacity="0.25"
     inkscape:showpageshadow="2"
     inkscape:pageopacity="0.0"
     inkscape:pagecheckerboard="0"
     inkscape:deskcolor="#d1d1d1"
     showgrid="false"
     inkscape:zoom="0.67846959"
     inkscape:cx="367.00245"
     inkscape:cy="322.04833"
     inkscape:window-width="1512"
     inkscape:window-height="856"
     inkscape:window-x="0"
     inkscape:window-y="38"
     inkscape:window-maximized="1"
     inkscape:current-layer="g1" />
  <g
     inkscape:groupmode="layer"
     inkscape:label="Image"
     id="g1">
    <path
       id="path1"
       style="display:inline;fill:#2f318f;fill-opacity:1"
       d="M 368.19141 23.798828 L 344.41406 30.478516 L 320.5 37.197266 L 299.05469 43.636719 L 277.61133 50.076172 L 262.05469 55.160156 L 246.5 60.246094 L 224.85938 68.068359 L 203.21875 75.888672 L 185.85938 82.837891 L 168.5 89.787109 L 154.5 95.972656 L 140.5 102.16016 L 120 112.62695 L 99.5 123.0957 L 92.533203 127.79883 L 85.566406 132.5 L 83.244141 137.0625 L 80.921875 141.62695 L 79.751953 154.0625 L 78.580078 166.5 L 78.542969 211.5 L 78.505859 256.5 L 79.804688 272.5 L 81.103516 288.5 L 83.101562 306 L 85.101562 323.5 L 87.027344 336.02734 L 88.951172 348.55664 L 92.009766 364.89258 L 95.068359 381.22852 L 98.53125 395.70117 L 101.99414 410.17383 L 106.48047 424.93359 L 110.96484 439.69336 L 115.89648 452.72461 L 120.82617 465.75781 L 127.79102 480.27734 L 134.75781 494.79492 L 140 504.14844 L 145.24219 513.5 L 153.27734 525.5 L 161.31445 537.5 L 167.38477 545.5 L 173.45508 553.5 L 185.11719 567 L 196.7793 580.5 L 213.14062 596.52539 L 229.5 612.54883 L 238 620.12305 L 246.5 627.69727 L 258.32617 637.37891 L 270.15234 647.0625 L 283.82617 657.34375 L 297.5 667.625 L 313 678.63281 L 328.5 689.64062 L 343 699.16992 L 357.5 708.70117 L 360 710.02344 L 362.5 711.34766 L 365.5 712.07227 L 368.19141 712.7207 L 368.19141 23.798828 z " />
    <path
       id="path18"
       style="display:inline;fill:#4c51c6;fill-opacity:1"
       d="M 368.19141 23.798828 L 368.19141 712.7207 L 368.5 712.79492 L 369.5 712.89258 L 370.5 712.98828 L 374.25391 711.94727 L 378.00586 710.9043 L 393.25391 700.8125 L 408.5 690.7207 L 426.5 677.87695 L 444.5 665.0332 L 461 652.33789 L 477.5 639.64258 L 489.48633 629.57031 L 501.47461 619.5 L 514.48633 607.40234 L 527.5 595.30469 L 537.08789 585.29492 L 546.67773 575.28516 L 554.47266 566.39258 L 562.26758 557.5 L 572.64258 543.64453 L 583.01758 529.78711 L 591.20117 516.64453 L 599.38477 503.5 L 607.57422 487.34961 L 615.76367 471.19922 L 620.80078 458.34961 L 625.83789 445.5 L 628.83594 436.5 L 631.83203 427.5 L 634.86328 417 L 637.89258 406.5 L 640.37891 396 L 642.86719 385.5 L 645.41016 373 L 647.95312 360.5 L 650.91602 342.5 L 653.88086 324.5 L 655.93164 308 L 657.98242 291.5 L 659.4668 271.81445 L 660.94922 252.12695 L 661.61133 224.81445 L 662.27344 197.5 L 661.08008 171.5 L 659.88672 145.5 L 658.94531 141.90039 L 658.00391 138.30273 L 655.73633 134.90039 L 653.4668 131.5 L 646.48438 126.77344 L 639.5 122.04883 L 619.5 112.0918 L 599.5 102.13281 L 585.5 95.951172 L 571.5 89.767578 L 552.5 82.279297 L 533.5 74.791016 L 515.5 68.269531 L 497.5 61.748047 L 473 53.84375 L 448.5 45.941406 L 429.5 40.369141 L 410.5 34.798828 L 394 29.851562 L 377.5 24.90625 L 372.91406 24.333984 L 368.33008 23.759766 L 368.19141 23.798828 z " />
    <path
       style="fill:#ffffff;fill-opacity:1"
       d="m 395.199,511.07776 9.69899,-2.098 8.80101,-3.10416 8.801,-3.10415 6,-2.9954 6,-2.99541 8.5,-5.59867 8.5,-5.59868 8.02225,-8.04165 8.02224,-8.04164 3.93691,-5.98457 3.9369,-5.98457 3.3649,-6.83028 3.3649,-6.83029 2.51584,-9.68515 2.51583,-9.68514 0.52398,-13.5 0.52398,-13.5 -1.63903,-9.39625 -1.63903,-9.39626 -3.02839,-7.60374 -3.02839,-7.60375 -4.10156,-7 -4.10155,-7 -10.09489,-10.07606 -10.09489,-10.07606 -8.94087,-5.83418 -8.94086,-5.83418 -11.05914,-5.22203 -11.05913,-5.22202 -23.5,-9.0408 -23.5,-9.0408 -8.13971,-3.4918 -8.13971,-3.4918 -6.52791,-4.12275 -6.52791,-4.12275 -3.69505,-4.08998 -3.69505,-4.08998 -2.12238,-4.62241 -2.12237,-4.6224 -0.015,-8 -0.0149,-8 2.77047,-5.64151 2.77047,-5.6415 4.57626,-4.21826 4.57627,-4.21826 7.15327,-3.27748 7.15326,-3.27749 5.29922,-1.11275 5.29922,-1.11275 8.20078,0.0349 8.20078,0.0349 7.5,1.34251 7.5,1.34251 9.19038,3.08356 9.19037,3.08356 10.28852,5.16302 10.28851,5.16302 7.35243,4.96137 7.35243,4.96136 0.29921,-0.33534 0.29921,-0.33535 11.71817,-27 11.71817,-27 0.1513,-1.91669 0.1513,-1.91669 -8,-5.81392 -8,-5.81392 -13,-6.47331 -13,-6.4733 -10,-2.92358 -10,-2.92357 -10.5,-1.82545 -10.5,-1.82545 -18.5,-0.003 -18.5,-0.003 -9.5,1.74899 -9.5,1.749 -10.17149,3.40324 -10.17148,3.40323 -6.32852,3.17779 -6.32851,3.17778 -6.94566,4.62625 -6.94566,4.62624 -7.64742,7.5 -7.64743,7.5 -4.22424,6.29427 -4.22424,6.29427 -3.89869,8.20573 -3.8987,8.20573 -2.63332,9 -2.63331,9 -0.51378,14 -0.51377,14 1.62847,9.33948 1.62848,9.33948 3.21422,8.13391 3.21423,8.13391 4.89357,7.52661 4.89357,7.52661 8.12684,8.03094 8.12684,8.03093 8.5,5.61203 8.5,5.61203 9,4.48941 9,4.48942 29.5,11.71805 29.5,11.71805 7.89104,4.08438 7.89103,4.08438 5.60897,4.13629 5.60896,4.13629 2.84996,4.12689 2.84996,4.12689 1.35614,3.80201 1.35615,3.80201 0.0439,7.09028 0.0439,7.09028 -3.06352,6.13065 -3.06352,6.13064 -4.61725,4.06427 -4.61725,4.06426 -6.32934,3.02072 -6.32934,3.02071 -7.23989,1.52341 -7.23989,1.52342 -11.57881,0.0133 -11.57881,0.0133 -8.69607,-1.6295 -8.69608,-1.6295 -8.72511,-3.04606 -8.72512,-3.04606 -8.5,-4.55369 -8.5,-4.55368 -5.8335,-3.95731 -5.83349,-3.95731 -6.98092,-6.0083 -6.98092,-6.00829 -0.34065,0.35226 -0.34066,0.35225 -15.52767,26.97858 -15.52766,26.97859 1.18273,1.42702 1.18274,1.42702 6.59557,5.26377 6.59557,5.26377 7.90443,5.18285 7.90443,5.18285 12,5.78976 12,5.78977 9.5,3.08524 9.5,3.08524 7,1.61247 7,1.61246 9.5,1.36804 9.5,1.36803 20,-0.36985 20,-0.36984 z"
       id="path17"
       inkscape:label="path17" />
  </g>
</svg>
